icons/1_Primary/redirect.pizza.svg

<svg width="1024" height="1024" viewBox="0 0 1024 1024" fill="none" xmlns="http://www.w3.org/2000/svg">
<g clip-path="url(#clip0_2_3309)">
<path d="M512 1024C794.77 1024 1024 794.77 1024 512C1024 229.23 794.77 0 512 0C229.23 0 0 229.23 0 512C0 794.77 229.23 1024 512 1024Z" fill="#F9DE81"/>
<path d="M419 377.18H260.92C244.38 377.18 230.97 390.59 230.97 407.13C230.97 423.68 244.38 437.08 260.92 437.08H419C435.54 437.08 448.95 423.67 448.95 407.13C448.95 390.58 435.54 377.18 419 377.18ZM350.17 488.89H192.09C175.55 488.89 162.14 502.3 162.14 518.84C162.14 535.39 175.55 548.79 192.09 548.79H350.17C366.71 548.79 380.12 535.38 380.12 518.84C380.12 502.29 366.71 488.89 350.17 488.89ZM419 598.35H260.92C244.38 598.35 230.97 611.76 230.97 628.3C230.97 644.85 244.38 658.25 260.92 658.25H419C435.54 658.25 448.95 644.84 448.95 628.3C448.95 611.75 435.54 598.35 419 598.35ZM571.08 709.73C561.16 697.9 552.39 685.18 544.76 671.77C540.936 665.054 537.403 658.178 534.17 651.16C532.01 646.48 529.97 641.73 528.06 636.92C526.15 632.11 524.36 627.25 522.71 622.33C521.05 617.41 519.52 612.45 518.11 607.43C516.7 602.42 515.42 597.36 514.26 592.27C513.1 587.18 512.07 582.05 511.16 576.9C510.25 571.75 509.47 566.56 508.81 561.36C505.85 537.94 505.42 514.1 507.48 490.5C508.17 482.64 509.13 474.8 510.37 467.02C511.2 461.83 512.15 456.67 513.22 451.53C514.29 446.39 515.49 441.29 516.8 436.23C518.12 431.16 519.56 426.14 521.12 421.16C525.8 406.22 531.58 391.69 538.46 377.77C543.021 368.509 548.092 359.509 553.65 350.81C559.184 342.14 565.22 333.803 571.73 325.84C583.12 311.92 595.97 299.21 610.28 288.01L649.66 325.93C643.03 331.13 636.79 336.78 630.95 342.81C617.8 356.39 606.64 371.95 597.49 388.88C593.72 395.84 590.31 403.05 587.23 410.43C586.14 413.022 585.093 415.633 584.09 418.26C582.55 422.32 581.11 426.43 579.77 430.58C577.082 438.932 574.796 447.408 572.92 455.98C571.038 464.621 569.553 473.343 568.47 482.12C567.66 488.72 567.07 495.36 566.7 502.01C566.58 504.23 566.48 506.45 566.41 508.67C566.2 515.28 566.21 521.9 566.44 528.5C566.52 530.77 566.62 533.05 566.76 535.32C566.9 537.74 567.08 540.16 567.28 542.57C567.63 546.78 568.07 550.99 568.6 555.17C568.88 557.36 569.19 559.55 569.52 561.74C569.91 564.33 570.35 566.92 570.82 569.49C571.45 572.96 572.14 576.41 572.89 579.84C573.08 580.71 573.27 581.58 573.47 582.44C574.26 585.86 575.11 589.26 576.02 592.63C577.281 597.275 578.665 601.887 580.17 606.46C581.04 609.09 581.97 611.68 582.92 614.27C584 617.19 585.13 620.09 586.31 622.96C587.76 626.47 589.28 629.93 590.88 633.34C596.45 645.22 602.97 656.52 610.45 667.07C612.18 669.51 613.94 671.92 615.77 674.27C619.65 679.26 623.76 684.06 628.11 688.64C631 691.69 634 694.65 637.1 697.51C637.19 697.59 637.27 697.67 637.35 697.74C637.43 697.81 637.5 697.88 637.57 697.94C637.71 698.07 637.83 698.18 637.95 698.28C638.48 698.75 638.89 699.09 640.1 700.06C640.37 700.28 640.68 700.52 641.04 700.81C641.22 700.95 641.41 701.11 641.62 701.27L596.85 736C595.39 734.7 593.88 733.47 592.44 732.15C584.843 725.142 577.702 717.657 571.06 709.74L571.08 709.73ZM678.83 471.9C674.91 474.3 670.37 475.48 665.79 475.29C659.64 475.037 653.842 472.354 649.67 467.83C645.498 463.305 643.29 457.31 643.53 451.16C643.709 446.57 645.251 442.139 647.96 438.43C650.66 434.72 654.4 431.89 658.71 430.3C663.02 428.71 667.7 428.44 672.17 429.52C676.63 430.6 680.68 432.97 683.79 436.35C686.904 439.724 688.947 443.946 689.66 448.481C690.374 453.017 689.727 457.662 687.8 461.83C685.873 465.998 682.756 469.502 678.84 471.9H678.83ZM786.84 458L656.28 332.28L655.28 333.07C608.22 369.98 578.43 434.93 575.58 506.79C572.67 580.3 597.98 649.1 643.27 690.81L643.44 690.96C644.08 691.546 645.213 692.49 646.84 693.79L647.3 694.16L649.02 695.53L861.87 530.39L786.85 458H786.84ZM633.97 579.91C623.73 579.91 615.44 571.61 615.44 561.38C615.44 551.15 623.74 542.85 633.97 542.85C644.2 542.85 652.5 551.15 652.5 561.38C652.5 571.61 644.2 579.91 633.97 579.91ZM647.24 494.25C638.904 490.399 631.897 484.162 627.107 476.328C622.317 468.494 619.958 459.415 620.33 450.24C620.83 437.94 626.2 426.34 635.24 417.99C644.286 409.639 656.278 405.222 668.58 405.71C677.76 406.08 686.62 409.16 694.04 414.56C701.462 419.963 707.116 427.445 710.29 436.06C713.463 444.677 714.006 454.043 711.85 462.97C709.702 471.897 704.951 479.986 698.2 486.21C691.452 492.436 683.009 496.522 673.94 497.95C664.87 499.38 655.58 498.09 647.24 494.23V494.25ZM715.7 643.61C715.115 641.171 713.933 638.917 712.26 637.05C710.58 635.19 708.46 633.77 706.1 632.94C703.733 632.108 701.196 631.881 698.72 632.28C696.24 632.68 693.91 633.69 691.93 635.23C689.95 636.77 688.38 638.77 687.38 641.07C686.37 643.37 685.96 645.88 686.18 648.38C686.4 650.88 687.23 653.28 688.62 655.37C690 657.46 691.89 659.17 694.11 660.34L681.7 669.91C676.91 665.879 673.507 660.447 671.97 654.38C670.427 648.315 670.822 641.919 673.1 636.09C675.38 630.26 679.42 625.29 684.67 621.88C689.92 618.47 696.1 616.78 702.35 617.07C707.77 617.3 713.03 619 717.56 621.99C722.09 624.98 725.73 629.14 728.08 634.03L715.71 643.6L715.7 643.61ZM757.38 562.52C739.98 562.52 725.87 548.41 725.87 531.01C725.87 513.61 739.98 499.5 757.38 499.5C774.78 499.5 788.89 513.61 788.89 531.01C788.89 548.41 774.78 562.52 757.38 562.52Z" fill="white"/>
</g>
<defs>
<clipPath id="clip0_2_3309">
<rect width="1024" height="1024" fill="white"/>
</clipPath>
</defs>
</svg>

<svg width="1024" height="1024" fill="none" xmlns="http://www.w3.org/2000/svg"><g clip-path="url(#a)"><path d="M512 1024c282.77 0 512-229.23 512-512S794.77 0 512 0 0 229.23 0 512s229.23 512 512 512Z" fill="#F9DE81"/><path d="M419 377.18H260.92c-16.54 0-29.95 13.41-29.95 29.95 0 16.55 13.41 29.95 29.95 29.95H419c16.54 0 29.95-13.41 29.95-29.95 0-16.55-13.41-29.95-29.95-29.95Zm-68.83 111.71H192.09c-16.54 0-29.95 13.41-29.95 29.95 0 16.55 13.41 29.95 29.95 29.95h158.08c16.54 0 29.95-13.41 29.95-29.95 0-16.55-13.41-29.95-29.95-29.95ZM419 598.35H260.92c-16.54 0-29.95 13.41-29.95 29.95 0 16.55 13.41 29.95 29.95 29.95H419c16.54 0 29.95-13.41 29.95-29.95 0-16.55-13.41-29.95-29.95-29.95Zm152.08 111.38c-9.92-11.83-18.69-24.55-26.32-37.96a269.79 269.79 0 0 1-10.59-20.61c-2.16-4.68-4.2-9.43-6.11-14.24-1.91-4.81-3.7-9.67-5.35-14.59-1.66-4.92-3.19-9.88-4.6-14.9-1.41-5.01-2.69-10.07-3.85-15.16-1.16-5.09-2.19-10.22-3.1-15.37-.91-5.15-1.69-10.34-2.35-15.54-2.96-23.42-3.39-47.26-1.33-70.86.69-7.86 1.65-15.7 2.89-23.48.83-5.19 1.78-10.35 2.85-15.49 1.07-5.14 2.27-10.24 3.58-15.3 1.32-5.07 2.76-10.09 4.32-15.07 4.68-14.94 10.46-29.47 17.34-43.39a279.11 279.11 0 0 1 15.19-26.96 263.09 263.09 0 0 1 18.08-24.97c11.39-13.92 24.24-26.63 38.55-37.83l39.38 37.92c-6.63 5.2-12.87 10.85-18.71 16.88-13.15 13.58-24.31 29.14-33.46 46.07-3.77 6.96-7.18 14.17-10.26 21.55a252.99 252.99 0 0 0-3.14 7.83c-1.54 4.06-2.98 8.17-4.32 12.32a274.378 274.378 0 0 0-6.85 25.4 289.319 289.319 0 0 0-4.45 26.14c-.81 6.6-1.4 13.24-1.77 19.89-.12 2.22-.22 4.44-.29 6.66-.21 6.61-.2 13.23.03 19.83.08 2.27.18 4.55.32 6.82.14 2.42.32 4.84.52 7.25.35 4.21.79 8.42 1.32 12.6.28 2.19.59 4.38.92 6.57.39 2.59.83 5.18 1.3 7.75.63 3.47 1.32 6.92 2.07 10.35.19.87.38 1.74.58 2.6.79 3.42 1.64 6.82 2.55 10.19a273.23 273.23 0 0 0 4.15 13.83c.87 2.63 1.8 5.22 2.75 7.81 1.08 2.92 2.21 5.82 3.39 8.69 1.45 3.51 2.97 6.97 4.57 10.38 5.57 11.88 12.09 23.18 19.57 33.73 1.73 2.44 3.49 4.85 5.32 7.2 3.88 4.99 7.99 9.79 12.34 14.37 2.89 3.05 5.89 6.01 8.99 8.87.09.08.17.16.25.23.08.07.15.14.22.2.14.13.26.24.38.34.53.47.94.81 2.15 1.78.27.22.58.46.94.75.18.14.37.3.58.46L596.85 736c-1.46-1.3-2.97-2.53-4.41-3.85a242.783 242.783 0 0 1-21.38-22.41l.02-.01ZM678.83 471.9c-3.92 2.4-8.46 3.58-13.04 3.39a23.227 23.227 0 0 1-16.12-7.46 23.255 23.255 0 0 1-6.14-16.67 23.107 23.107 0 0 1 4.43-12.73c2.7-3.71 6.44-6.54 10.75-8.13 4.31-1.59 8.99-1.86 13.46-.78 4.46 1.08 8.51 3.45 11.62 6.83a23.208 23.208 0 0 1 4.01 25.48 23.245 23.245 0 0 1-8.96 10.07h-.01ZM786.84 458 656.28 332.28l-1 .79c-47.06 36.91-76.85 101.86-79.7 173.72-2.91 73.51 22.4 142.31 67.69 184.02l.17.15c.64.586 1.773 1.53 3.4 2.83l.46.37 1.72 1.37 212.85-165.14L786.85 458h-.01ZM633.97 579.91c-10.24 0-18.53-8.3-18.53-18.53s8.3-18.53 18.53-18.53 18.53 8.3 18.53 18.53-8.3 18.53-18.53 18.53Zm13.27-85.66a46.413 46.413 0 0 1-26.91-44.01c.5-12.3 5.87-23.9 14.91-32.25a46.437 46.437 0 0 1 33.34-12.28c9.18.37 18.04 3.45 25.46 8.85a46.459 46.459 0 0 1 16.25 21.5 46.372 46.372 0 0 1 1.56 26.91 46.427 46.427 0 0 1-64.61 31.26v.02Zm68.46 149.36a15.11 15.11 0 0 0-3.44-6.56c-1.68-1.86-3.8-3.28-6.16-4.11a15.04 15.04 0 0 0-7.38-.66c-2.48.4-4.81 1.41-6.79 2.95a14.964 14.964 0 0 0-4.55 5.84c-1.01 2.3-1.42 4.81-1.2 7.31.22 2.5 1.05 4.9 2.44 6.99 1.38 2.09 3.27 3.8 5.49 4.97l-12.41 9.57a29.892 29.892 0 0 1-9.73-15.53 29.956 29.956 0 0 1 30.38-37.31c5.42.23 10.68 1.93 15.21 4.92 4.53 2.99 8.17 7.15 10.52 12.04l-12.37 9.57-.01.01Zm41.68-81.09c-17.4 0-31.51-14.11-31.51-31.51 0-17.4 14.11-31.51 31.51-31.51 17.4 0 31.51 14.11 31.51 31.51 0 17.4-14.11 31.51-31.51 31.51Z" fill="#fff"/></g><defs><clipPath id="a"><path fill="#fff" d="M0 0h1024v1024H0z"/></clipPath></defs></svg>
